!!!SOCIAL_FUNCTION:	corn dance songs
!!!PDT:	1932
!!!OTL: No_15_Corn_Dance_Song_(a).krn
!!!REG: Southwest
!!!LANG: Non-Tone
!!!LING_GROUP: Yuman-Cochimi
**kern	**kern
*staff2	*staff1
=1-	=1-
*clefF4	*clefF4
*k[b-e-]	*k[b-e-]
*M2/4	*M2/4
4GG/	8BB-/L
.	8D/J
8.GG/L	8D/L
.	16BB-/L
16GG/Jk	16BB-/JJ
=2	=2
4GG/	(4D\
8.GG/L	8BB-/)
.	8r
16GG/Jk	.
=3	=3
2r	8D/L
.	8BB-/J
.	8BB-/L
.	16BB-/L
.	16BB-/JJ
=4	=4
2r	(4D\
.	8BB-/)
.	8r
=5	=5
2r	8BB-/L
.	8BB-/J
.	8BB-/L
.	16BB-/L
.	16BB-/JJ
=6	=6
2r	4BB-/
.	4BB-/
=7	=7
2r	8BB-/L
.	8BB-/J
.	8BB-/L
.	16BB-/L
.	16BB-/JJ
=8	=8
2r	4BB-/
.	4BB-/
=9!|:	=9!|:
2r	8BB-/L
.	8D/J
.	8D\L
.	16BB-\L
.	16D\JJ
=10	=10
2r	(4D\
.	8BB-/)
.	8r
=11	=11
2r	8E-\L
.	8E-\J
.	8E-/L
.	16BB-/L
.	16BB-/JJ
=12	=12
2r	(4D\
.	8BB-/)
.	8r
=13	=13
2r	8BB-/L
.	8BB-/J
.	8BB-/L
.	16BB-/L
.	16BB-/JJ
=14	=14
2r	4BB-/
.	4BB-/
=15	=15
2r	8D/L
.	8BB-/J
.	8BB-/L
.	16BB-/L
.	16BB-/JJ
=16	=16
2r	4BB-/
.	4BB-/
=17:|!	=17:|!
2r	8F\L
.	8F\J
.	8F\L
.	16G\L
.	16G\JJ
=18	=18
2r	(4G\
.	8E-\)
.	8r
=19	=19
2r	8G\L
.	8F\J
.	8E-\L
.	16G\L
.	16G\JJ
=20	=20
2r	(4F\
.	8D\)
.	8r
=21	=21
2r	8BB-/L
.	8E-/J
.	8E-\L
.	16BB-\L
.	16E-\JJ
=22	=22
2r	(4D\
.	8BB-/)
.	8r
=23	=23
2r	8E-\L
.	8D\J
.	8D/L
.	16BB-/L
.	16BB-/JJ
=24	=24
2r	(4D\
.	8BB-/)
.	8r
=25	=25
2r	8BB-/L
.	8BB-/J
.	8BB-/L
.	16BB-/L
.	16BB-/JJ
=26	=26
2r	4BB-/
.	4BB-/
=27	=27
2r	8BB-/L
.	8BB-/J
.	8BB-/L
.	16BB-/L
.	16BB-/JJ
=28	=28
2r	4BB-/
.	4BB-/
==	==
*-	*-
